desc:Fxm v8.0 Define
slider1:5<-60,40,.1>Gain [dB]

@init
function db2ratio(x)
(
  pow(10, x/20);
)

@slider
slider1 <= -60 ? ratio=0 : ratio=db2ratio(slider1);

@sample
inL=spl0;
inR=spl1;

L = inL * ratio;
R = inR * ratio;


spl0=L;
spl1=R;
